!!!OTL: ES DUNKELT IN DEM WALDE
!!!ARE: Europa, Mitteleuropa, Deutschland, Pommern
!!!SCT: E0679C
!!!YEM: Copyright 1995, estate of Helmut Schaffrath.
**kern
*ICvox
*Ivox
*M6/8
*k[b-e-]
*B-:
{8f
=1
4f
8b-
8b-
8a
8g
=2
4g
8f
4f}
{8b-
=3
8b-
8d
8g
8f
8f
8e-
=4
4.d
4r}
{8f
=5
8f
8d
8f
8f
8d
8f
=6
4b-
8cc
4dd}
{8dd
=7
8ee-
8cc
8cc
8a
8g
8a
=8
4.b-
4r}
==
!!!AGN: Liebes - Lied, Leid, Klage
!!!ONB: ESAC (Essen Associative Code) Database: ERK2
!!!AMT: compound duple
!!!AIN: vox
!!!EED: Helmut Schaffrath
!!!EEV: 1.0
*-
